!!!!SEGMENT: pl-sa--549-a-ix-29--045_rossini-gioachino--allegro.krn
!!!cenid: 18xx:499
!!!COM: Rossini, Gioachino
!!!COM-rismid: pe63766
!!!CDT: 1792/02/29-1868/11/13
!!!CNT: Italian
!!!OTL: Allegro
!!!PDT:
!!!AGN: Secular
!!!SMS-siglum: PL-SA
!!!SMS-shelfmark: 549/A IX 29
!!!SMS-shelfwork: 045 W
!!!SMS-variant:
!!!SMS-altvar:
!!!NIFC-rismid: 1001068945
!!!URL-scan: http://bc.bdsandomierz.pl/dlibra/publication/1441/edition/1409/content
!!!ONB-nifc: Str. 32, s. 3-6
!!!key: G
**kern	**fing	**kern	**fing	**dynam
*part1	*	*part1	*	*part1
*staff2	*	*staff1	*	*
*I"[piano]	*	*I"[piano]	*	*
*Ipiano	*	*Ipiano	*	*
*ICklav	*	*ICklav	*	*
*clefF4	*	*clefG2	*	*
*k[f#]	*	*k[f#]	*	*
*G:	*	*G:	*	*
*M2/4	*	*M2/4	*	*
=1	=1	=1	=1	=1
*clefG2	*	*	*	*
!	!	!LO:TX:a:i:t=Oblężenie Koryntu Rosſyinnego	!	!
!	!	!LO:TX:a:i:t=Allegro/wesoło żywo./	!	!
8b/L 8g/	2 1	8dd\L	1	p
8d/	.	16dd\L	.	.
.	.	16ee\JJ	.	.
8b/ 8g/	.	8dd\L	.	.
8d/J	.	8gg\J	3	.
=2	=2	=2	=2	=2
8b/L 8g/	.	8dd\L	1	.
8d/	.	8bb\	4	.
8b/ 8g/	.	8gg\	2	.
8d/J	.	8eee\J	5	.
=3	=3	=3	=3	=3
*rep	*	*	*	*
8b/L 8g/	.	8ddd\L	4	.
8d/	.	16ccc\L	3	.
.	.	16bb\JJ	2	.
8b/ 8g/	.	8aa\L	1	.
8d/J	.	8gg\J	2	.
*Xrep	*	*	*	*
=4	=4	=4	=4	=4
8cc/L 8f#/	3 1	(4gg#X\	3	.
8d/	5	.	.	.
8cc/ 8f#/	.	8aa\)	.	.
8d/J	.	8r	.	.
=5	=5	=5	=5	=5
*tremolo	*	*	*	*
8b/L 8g/	.	8dd\L	1	.
8d/	.	16dd\L	.	.
.	.	16ee\JJ	.	.
8b/ 8g/	.	8dd\L	.	.
8d/J	.	8gg\J	.	.
=6	=6	=6	=6	=6
*rep	*	*	*	*
8b/L 8g/	.	8dd\L	1	.
8d/	.	8bb\	.	.
8b/ 8g/	.	8gg\	2	.
8d/J	.	8eee\J	5	.
*Xrep	*	*	*	*
*Xtremolo	*	*	*	*
=7	=7	=7	=7	=7
!	!	!LO:SIC:v:s=8ddd\L	!	!
8b/L 8g/	.	8bb\L	4	.
8d/	.	16ccc\L	3	.
.	.	16bb\JJ	.	.
8cc/ 8f#/	.	16aa\LL	1	.
.	.	16ccc\	3	.
8d/J	.	16bb\	2	.
.	.	16aa\JJ	1	.
=8	=8	=8	=8	=8
8b/L 8g/	.	16gg\LL	3	.
.	.	16ff#\	2	.
8d/	.	16gg\	3	.
.	.	16aa\JJ	4	.
8b\ 8g\J	.	8gg\	3	.
8r	.	8r	.	.
*clefF4	*	*	*	*
!!LO:LB:g=original
=9	=9	=9	=9	=9
!	!	!	!	!LO:DY:t=F.
16B\LL 16G\	.	8dd\L	.	f
16d\	.	.	.	.
16B\ 16G\	.	16dd\L	.	.
16d\JJ	.	16ee\JJ	.	.
16B\LL 16G\	.	8dd\L	.	.
16d\	.	.	.	.
16B\ 16G\	.	8gg\J	.	.
16d\JJ	.	.	.	.
=10	=10	=10	=10	=10
*rep	*	*	*	*
16B\LL 16G\	.	8dd\L	.	.
16d\	.	.	.	.
16B\ 16G\	.	8bb\	.	.
16d\JJ	.	.	.	.
*Xrep	*	*	*	*
*rep	*	*	*	*
16B\LL 16G\	.	8gg\	.	.
16d\	.	.	.	.
16B\ 16G\	.	8eee\J	.	.
16d\JJ	.	.	.	.
*Xrep	*	*	*	*
=11	=11	=11	=11	=11
16B\LL 16G\	.	8ddd\L	.	.
16d\	.	.	.	.
16B\ 16G\	.	16ccc\L	.	.
16d\JJ	.	16bb\JJ	.	.
16B\LL 16G\	.	8aa\L	.	.
16d\	.	.	.	.
16B\ 16G\	.	8gg\J	.	.
16d\JJ	.	.	.	.
=12	=12	=12	=12	=12
!	!	!LO:TX:t=P:problem=zamazane źródło	!	!
16c\LL 16F#\	5 2	(4gg#X\	.	.
16d\	1	.	.	.
16c\ 16F#\	.	.	.	.
16d\JJ	.	.	.	.
*rep	*	*	*	*
16c\LL 16F#\	.	8aa\)	.	.
16d\	.	.	.	.
16c\ 16F#\	.	8r	.	.
16d\JJ	.	.	.	.
*Xrep	*	*	*	*
=13	=13	=13	=13	=13
*tremolo	*	*	*	*
16B\LL 16G\	.	8dd\L	.	.
16d\	.	.	.	.
16B\ 16G\	.	16dd\L	.	.
16d\	.	16ee\JJ	.	.
16B\ 16G\	.	8dd\L	.	.
16d\	.	.	.	.
16B\ 16G\	.	8gg\J	.	.
16d\JJ	.	.	.	.
=14	=14	=14	=14	=14
*rep	*	*	*	*
16B\LL 16G\	.	8dd\L	.	.
16d\	.	.	.	.
16B\ 16G\	.	8bb\	.	.
16d\	.	.	.	.
16B\ 16G\	.	8gg\	.	.
16d\	.	.	.	.
16B\ 16G\	.	8eee\J	.	.
16d\JJ	.	.	.	.
*Xrep	*	*	*	*
*Xtremolo	*	*	*	*
=15	=15	=15	=15	=15
16B\LL 16G\	.	8ddd\L	.	.
16d\	.	.	.	.
16B\ 16G\	.	16ccc\L	.	.
16d\JJ	.	16bb\JJ	.	.
16c\LL 16F#\	.	16aa\LL	.	.
16d\	.	16ccc\	.	.
16c\ 16F#\	.	16bb\	.	.
16d\JJ	.	16aa\JJ	.	.
=16	=16	=16	=16	=16
16B\LL 16G\	.	16gg\LL	.	.
16d\	.	16ff#\	.	.
16B\ 16G\	.	16gg\	.	.
16d\JJ	.	16aa\JJ	.	.
8B\ 8G\	.	8gg\	.	.
8r	.	8r	.	.
!!LO:LB:g=original
=17	=17	=17	=17	=17
*clefG2	*below	*	*	*
8cc/L 8a/ 8f#/	1 2 3	8dd\L	1	p
8d/	5	16dd\L	.	.
.	.	16ee\JJ	.	.
8cc/ 8a/ 8f#/	.	8dd\L	.	.
8d/J	.	8aa\J	3	.
=18	=18	=18	=18	=18
*rep	*	*	*	*
8cc/L 8a/ 8f#/	.	(4ccc\	5	.
8d/	.	.	.	.
8cc/ 8a/ 8f#/	.	8aa\L)	.	.
8d/J	.	8ff#\J	.	.
*Xrep	*	*	*	*
=19	=19	=19	=19	=19
8b/L 8g/	1 2	8gg\L	2	.
8d/	.	16gg\L	.	.
.	.	16aa\JJ	.	.
8b/ 8g/	1 3	8gg\L	.	.
8d/J	5	8bb\J	4	.
=20	=20	=20	=20	=20
8a/L 8f#/	1 3	(4ddd\	5	.
8d/	5	.	.	.
8a/ 8f#/	.	8aa\)	.	.
8d/J	.	8r	.	.
=21	=21	=21	=21	=21
*tremolo	*	*	*	*
8cc/L 8a/ 8f#/	1 2 3	8dd\L	1	.
8d/	.	16dd\L	.	.
.	.	16ee\JJ	.	.
8cc/ 8a/ 8f#/	.	8dd\L	.	.
8d/J	5	8aa\J	3	.
=22	=22	=22	=22	=22
8cc/L 8a/ 8f#/	.	(4ccc\	5	.
8d/	.	.	.	.
8cc/ 8a/ 8f#/	.	8aa\)	3	.
8d/J	.	8r	.	.
=23	=23	=23	=23	=23
8b-X/L 8g/	.	8gg\L	3	.
8d/	.	16gg\L	3	.
.	.	16ff#\JJ	2	.
8b-/ 8g/	.	8gg\L	1	.
8d/J	.	8bb-X\J	3	.
*Xtremolo	*	*	*	*
=24	=24	=24	=24	=24
4a/ 4f#/	1 3	8ddd\L	5	.
.	.	8dd\	1	.
4r	.	8dd\	.	.
.	.	8dd\J	.	.
*clefF4	*	*	*	*
=25	=25	=25	=25	=25
16B\LL 16G\	.	8dd\L	.	f
16d\	.	.	.	.
16B\ 16G\	.	16dd\L	.	.
16d\JJ	.	16ee\JJ	.	.
16B\LL 16G\	.	8dd\L	.	.
16d\	.	.	.	.
16B\ 16G\	.	8gg\J	.	.
16d\JJ	.	.	.	.
!!LO:LB:g=original
=26	=26	=26	=26	=26
*rep	*	*	*	*
16B\LL 16G\	.	8dd\L	.	.
16d\	.	.	.	.
16B\ 16G\	.	8bb\	.	.
16d\JJ	.	.	.	.
*Xrep	*	*	*	*
*rep	*	*	*	*
16B\LL 16G\	.	8gg\	.	.
16d\	.	.	.	.
16B\ 16G\	.	8eee\J	.	.
16d\JJ	.	.	.	.
*Xrep	*	*	*	*
=27	=27	=27	=27	=27
*rep	*	*	*	*
16B\LL 16G\	.	8ddd\L	.	.
16d\	.	.	.	.
16B\ 16G\	.	16ccc\L	.	.
16d\JJ	.	16bb\JJ	.	.
16B\LL 16G\	.	8aa\L	.	.
16d\	.	.	.	.
16B\ 16G\	.	8gg\J	.	.
16d\JJ	.	.	.	.
*Xrep	*	*	*	*
=28	=28	=28	=28	=28
*tremolo	*	*	*	*
16c\LL 16F#\	.	(4gg#X\	.	.
16d\	.	.	.	.
16c\ 16F#\	.	.	.	.
16d\	.	.	.	.
16c\ 16F#\	.	8aa\)	.	.
16d\	.	.	.	.
16c\ 16F#\	.	8r	.	.
16d\JJ	.	.	.	.
=29	=29	=29	=29	=29
16B\LL 16G\	.	8dd\L	.	.
16d\	.	.	.	.
16B\ 16G\	.	16dd\L	.	.
16d\	.	16ee\JJ	.	.
16B\ 16G\	.	8dd\L	.	.
16d\	.	.	.	.
16B\ 16G\	.	8gg\J	.	.
16d\JJ	.	.	.	.
=30	=30	=30	=30	=30
*rep	*	*	*	*
16B\LL 16G\	.	8dd\L	.	.
16d\	.	.	.	.
16B\ 16G\	.	8bb\	.	.
16d\	.	.	.	.
16B\ 16G\	.	8gg\	.	.
16d\	.	.	.	.
16B\ 16G\	.	8eee\J	.	.
16d\JJ	.	.	.	.
*Xrep	*	*	*	*
*Xtremolo	*	*	*	*
=31	=31	=31	=31	=31
16B\LL 16G\	.	8ddd\L	.	.
16d\	.	.	.	.
16B\ 16G\	.	16ccc\L	.	.
16d\JJ	.	16bb\JJ	.	.
16c\LL 16F#\	.	16aa\LL	.	.
16d\	.	16ccc\	.	.
16c\ 16F#\	.	16bb\	.	.
16d\JJ	.	16aa\JJ	.	.
=32	=32	=32	=32	=32
16B\LL 16G\	.	16gg\LL	.	.
16d\	.	16ff#\	.	.
16B\ 16G\	.	16gg\	.	.
16d\JJ	.	16aa\JJ	.	.
8B\ 8G\	.	8gg\	.	.
8r	.	8r	.	.
==	==	==	==	==
*-	*-	*-	*-	*-
!!!system-decoration: {*}
!!!AIN: 1 piano
!!!ENC: Anastazja Marusiak
!!!END: 2020-06-17
!!!EED: Andrzej Borzym
!!!EST: 2022-01-07
